hornpipes/bobbycaseys.htmlhornpipes/bobbycaseys.htmlhornpipes/bobbycaseys.htmlhornpipes/bobbycaseys.htmlhornpipes/bobbycaseys.htmlhornpipes/bobbycaseys.htmlhornpipes/bobbycaseys.htmlhornpipes/bobbycaseys.htmlhornpipes/bobbycaseys.html<PRE>T:Chimer, The
T:Chimer, The
M:6/8
L:1/8
R:jig
D:Brenda McCann: Inishkeeragh
Z:Devin McCabe
K:EMin
BAF ~E3|EDB, DFA|BAG EFA|d2e dBA|
!BAF ~E3|EDB, DFA|FAd GBd|FED ~E2A:|
!~B2B eBe|bag fed|A~B2 egb|gfe afd|
!A~B2 eBe|bag fed|~c3 ~B3|dAB GFE:|
hornpipes/bobbycaseys.htmlhornpipes/bobbycaseys.htmlhornpipes/bobbycaseys.htmlhornpipes/bobbycaseys.htmlhornpipes/bobbycaseys.htmlhornpipes/bobbycaseys.htmlhornpipes/bobbycaseys.html